X:118
T: Das Pfaffenlied
N: A0476
O: Europa, Mitteleuropa, Deutschland
N: Fliegendes Blatt um 1582.
R: Romanze, Ballade, Lied
M: 4/4
L: 1/8
K: G
G2 | G2G2G2G2 | A2A2A2
G2 | B2c2d2B2 | A4G2
G2 | G2G2G2G2 | A2A2A2
G2 | B2c2d2B2 | A4G2
G2 | d2d2d2c2 | dcB2A4z2
A2 | B2B2Bcd2 | B2c2G4
z2G2A2G2 | c4z2
e2 | d2c2dGA2 | G4z2

